Adwaita++/actions/16/format-indent-less.svg

<svg xmlns="http://www.w3.org/2000/svg" fill="none" width="16" height="16" viewBox="0 0 16 16">
 <path fill="#444" d="M2 3H7V5H2V3Z"/>
 <path fill="#444" d="M2 7H8V9H2V7Z"/>
 <path fill="#444" d="M7 11H14V13H7V11Z"/>
 <path fill="#444" d="M14 3V4C14 4.25689 13.8702 4.52846 13.6875 4.71875L12.4063 5.99994L13.6875 7.28113C13.8702 7.47142 14 7.74299 14 7.99988V8.99988H13C12.6906 8.99988 12.4477 8.90958 12.25 8.71863L9.59381 5.99988L12.25 3.28107C12.4477 3.09012 12.6906 2.99982 13 2.99982H14V3Z"/>
</svg>

<svg xmlns="http://www.w3.org/2000/svg" width="16" height="16">
    <g color="#bebebe" fill="#474747">
        <path d="M7 3H2v2h5zM8 7H2v2h6zM14 11H7v2h7z" style="marker:none" overflow="visible"/>
        <path d="M14 3v1c0 .257-.13.528-.312.719L12.406 6l1.282 1.281c.182.19.312.462.312.719v1h-1c-.31 0-.552-.09-.75-.281L9.594 6l2.656-2.719c.198-.19.44-.281.75-.281z" style="line-height:normal;-inkscape-font-specification:'Bitstream Vera Sans';text-indent:0;text-align:start;text-decoration-line:none;text-transform:none;marker:none" font-weight="400" font-family="Bitstream Vera Sans" overflow="visible"/>
    </g>
</svg>
